apex/img/safety-icon-5.svg

<svg width="72" height="78" viewBox="0 0 72 78" fill="none" xmlns="http://www.w3.org/2000/svg">
<path d="M5.13703 57.0222C5.13703 45.032 14.8934 35.2756 26.8846 35.2756C32.0054 35.2756 36.7642 36.9931 40.6481 40.2432L43.9445 36.303C39.1249 32.2703 33.2257 30.1392 26.8847 30.1392C12.0604 30.1392 0 42.1996 0 57.0231V69.7805C0 71.1993 1.14989 72.3492 2.56867 72.3492H43.4951V67.211H5.13703V57.0222Z" fill="#E5A132"/>
<path d="M26.8843 0C17.1587 0 9.24658 7.91213 9.24658 17.6378C9.24658 27.3634 17.1589 35.2756 26.8846 35.2756C36.6102 35.2756 44.5221 27.3634 44.5221 17.6378C44.5221 7.91213 36.61 0 26.8843 0ZM26.8847 30.1392C19.9922 30.1392 14.3838 24.5302 14.3838 17.6378C14.3838 10.7453 19.9918 5.13718 26.8843 5.13718C33.7768 5.13718 39.3849 10.7453 39.3849 17.6378C39.3849 24.5302 33.777 30.1392 26.8847 30.1392Z" fill="#E5A132"/>
<path d="M70.2239 39.1772L53.956 30.444C53.1897 30.0322 52.265 30.0372 51.5013 30.4577L35.6615 39.1909C34.842 39.6422 34.3335 40.5043 34.3335 41.4401V53.7695C34.3335 63.7588 40.2816 72.8156 49.4815 76.8407L51.6219 77.7825C51.9516 77.9272 52.3035 77.9999 52.6562 77.9999C52.9901 77.9999 53.3231 77.9339 53.6374 77.8047L56.1205 76.7781C56.1238 76.7764 56.1273 76.7755 56.1307 76.7738C65.5138 72.8473 71.5774 63.7501 71.5774 53.5981V41.4409C71.5774 40.4941 71.0578 39.6251 70.2239 39.1772ZM66.4412 53.5982C66.4412 61.6714 61.6181 68.9071 54.1539 72.033L52.688 72.6384L51.5459 72.1368C44.2109 68.9269 39.4708 61.7177 39.4708 53.7696V42.9575L52.759 35.631L66.4412 42.9764V53.5982Z" fill="#E5A132"/>
<path d="M62.3501 49.0596C61.4495 47.9619 59.8321 47.8009 58.7352 48.6991L50.758 55.2328L48.1098 52.1086C47.192 51.0272 45.5721 50.8911 44.4889 51.8089C43.4067 52.7268 43.2723 54.3476 44.1893 55.4298L48.4703 60.4814C48.978 61.0807 49.7015 61.3898 50.4318 61.3898C51.0047 61.3898 51.5808 61.1997 52.0578 60.8085L61.9897 52.6745C63.0873 51.7754 63.2491 50.1563 62.3501 49.0596Z" fill="#E5A132"/>
</svg>

<svg width="72" height="78" fill="none" xmlns="http://www.w3.org/2000/svg"><path d="M5.137 57.022c0-11.99 9.756-21.746 21.748-21.746 5.12 0 9.88 1.717 13.763 4.967l3.296-3.94c-4.82-4.033-10.718-6.164-17.06-6.164C12.06 30.14 0 42.2 0 57.023v12.758a2.569 2.569 0 002.569 2.568h40.926v-5.138H5.137V57.022z" fill="#E5A132"/><path d="M26.884 0C17.16 0 9.247 7.912 9.247 17.638c0 9.725 7.912 17.638 17.638 17.638 9.725 0 17.637-7.913 17.637-17.638C44.522 7.912 36.61 0 26.884 0zm0 30.14c-6.892 0-12.5-5.61-12.5-12.502 0-6.893 5.608-12.5 12.5-12.5 6.893 0 12.5 5.607 12.5 12.5 0 6.892-5.607 12.501-12.5 12.501zm43.34 9.037l-16.268-8.733a2.57 2.57 0 00-2.455.014l-15.84 8.733a2.567 2.567 0 00-1.328 2.25v12.328c0 9.99 5.949 19.047 15.148 23.072l2.14.942a2.572 2.572 0 002.016.022l2.483-1.027.01-.004c9.384-3.927 15.447-13.024 15.447-23.176V41.441a2.57 2.57 0 00-1.353-2.264zM66.44 53.598c0 8.073-4.823 15.31-12.287 18.435l-1.466.605-1.142-.501C44.21 68.927 39.47 61.717 39.47 53.77V42.957l13.288-7.326 13.682 7.345v10.622z" fill="#E5A132"/><path d="M62.35 49.06a2.57 2.57 0 00-3.615-.36l-7.977 6.533-2.648-3.124a2.57 2.57 0 00-3.92 3.32l4.28 5.052c.508.6 1.232.909 1.962.909.573 0 1.149-.19 1.626-.581l9.932-8.134a2.569 2.569 0 00.36-3.615z" fill="#E5A132"/></svg>
